app/assets/images/idv/remote.svg

<svg width="100" height="100" viewBox="0 0 100 100" fill="none" xmlns="http://www.w3.org/2000/svg">
<g filter="url(#filter0_d_418_16092)">
<path d="M50 94C74.3005 94 94 74.3005 94 50C94 25.6995 74.3005 6 50 6C25.6995 6 6 25.6995 6 50C6 74.3005 25.6995 94 50 94Z" fill="white"/>
</g>
<path d="M50.0004 89.6C71.8709 89.6 89.6004 71.8705 89.6004 50C89.6004 28.1295 71.8709 10.4 50.0004 10.4C28.1299 10.4 10.4004 28.1295 10.4004 50C10.4004 71.8705 28.1299 89.6 50.0004 89.6Z" fill="#5D8EBA"/>
<path d="M50.0004 85.6399C69.6838 85.6399 85.6404 69.6833 85.6404 49.9999C85.6404 30.3164 69.6838 14.3599 50.0004 14.3599C30.3169 14.3599 14.3604 30.3164 14.3604 49.9999C14.3604 69.6833 30.3169 85.6399 50.0004 85.6399Z" fill="white"/>
<path d="M73.3143 26.974H25.9736V55.3799H73.3143V26.974Z" fill="#EDF3FB"/>
<path d="M74.288 56.3534H25V26.0002H74.288V56.3534ZM26.9473 54.4061H72.3407V27.9475H26.9473V54.4061Z" fill="#EDF3FB"/>
<path d="M77.1066 21.6062H22.896C21.2316 21.6062 19.8789 22.9564 19.8789 24.6233V59.5267H80.1237V24.6233C80.1237 22.9564 78.7735 21.6062 77.1066 21.6062ZM74.4515 55.2373H25.5511V25.8956H74.4515V55.2373Z" fill="#C8D3DD" stroke="#1B1B1B" stroke-width="2" stroke-miterlimit="10"/>
<path d="M87.835 77.534L80.1237 59.5267H19.8789L12.1676 77.534C11.6094 78.8364 12.5648 80.2871 13.9829 80.2871H41.1095L41.8185 74.9518H58.184L58.893 80.2871H86.0197C87.4377 80.2871 88.3932 78.8364 87.835 77.534ZM22.4384 71.1653L24.6359 64.9424H75.3692L77.5641 71.1653H22.4384Z" fill="#C8D3DD" stroke="#1B1B1B" stroke-width="2" stroke-miterlimit="10"/>
<path d="M77.5642 71.1655H22.4385L24.636 64.9426H75.3692L77.5642 71.1655Z" fill="#EDF3FB"/>
<path d="M78.985 72.1711H21.0156L23.9247 63.9368H76.081L78.985 72.1711ZM23.8593 70.1596H76.1413L74.6554 65.9482H25.3452L23.8568 70.1596H23.8593Z" fill="#1B1B1B"/>
<path d="M58.8929 80.0382H41.1094L41.8184 74.9518H58.1839L58.8929 80.0382Z" fill="#EDF3FB"/>
<path d="M60.0473 81.0439H39.9531L40.9412 73.9461H59.0567L60.0473 81.0439ZM42.2638 79.0325H57.7367L57.3067 75.9575H42.6912L42.2612 79.0325H42.2638Z" fill="#1B1B1B"/>
<path d="M8 43.5769C8 42.1537 9.15373 41 10.5769 41H34.4231C35.8463 41 37 42.1537 37 43.5769V90.0769C37 91.5001 35.8463 92.6538 34.4231 92.6538H10.5769C9.15373 92.6538 8 91.5001 8 90.0769V43.5769Z" fill="#C8D3DD" stroke="#1B1B1B" stroke-width="2"/>
<path d="M11.1733 47.1538C11.1733 46.1661 11.974 45.3654 12.9618 45.3654H32.0387C33.0264 45.3654 33.8271 46.1661 33.8271 47.1538V85.3077C33.8271 86.9539 32.4926 88.2885 30.8464 88.2885H14.1541C12.5078 88.2885 11.1733 86.9539 11.1733 85.3077V47.1538Z" fill="#EDF3FB" stroke="#1B1B1B" stroke-width="1.19231"/>
<rect x="18.3266" y="45.3654" width="8.34615" height="2.38462" rx="1.19231" fill="#C8D3DD" stroke="#1B1B1B" stroke-width="1.19231"/>
<defs>
<filter id="filter0_d_418_16092" x="0" y="0" width="100" height="100" filterUnits="userSpaceOnUse" color-interpolation-filters="sRGB">
<feFlood flood-opacity="0" result="BackgroundImageFix"/>
<feColorMatrix in="SourceAlpha" type="matrix" values="0 0 0 0 0 0 0 0 0 0 0 0 0 0 0 0 0 0 127 0" result="hardAlpha"/>
<feOffset/>
<feGaussianBlur stdDeviation="3"/>
<feComposite in2="hardAlpha" operator="out"/>
<feColorMatrix type="matrix" values="0 0 0 0 0 0 0 0 0 0 0 0 0 0 0 0 0 0 0.24 0"/>
<feBlend mode="normal" in2="BackgroundImageFix" result="effect1_dropShadow_418_16092"/>
<feBlend mode="normal" in="SourceGraphic" in2="effect1_dropShadow_418_16092" result="shape"/>
</filter>
</defs>
</svg>

<svg xmlns="http://www.w3.org/2000/svg" width="100" height="100" fill="none" viewBox="0 0 100 100"><g filter="url(#a)"><path fill="#fff" d="M50 94c24.3 0 44-19.7 44-44S74.3 6 50 6 6 25.7 6 50s19.7 44 44 44Z"/></g><path fill="#5D8EBA" d="M50 89.6c21.87 0 39.6-17.73 39.6-39.6S71.87 10.4 50 10.4 10.4 28.13 10.4 50 28.13 89.6 50 89.6Z"/><path fill="#fff" d="M50 85.64c19.684 0 35.64-15.957 35.64-35.64 0-19.684-15.956-35.64-35.64-35.64-19.683 0-35.64 15.956-35.64 35.64 0 19.683 15.957 35.64 35.64 35.64Z"/><path fill="#EDF3FB" d="M73.314 26.974h-47.34V55.38h47.34V26.974Z"/><path fill="#EDF3FB" d="M74.288 56.353H25V26h49.288v30.353Zm-47.34-1.947H72.34V27.948H26.947v26.458Z"/><path fill="#C8D3DD" stroke="#1B1B1B" stroke-miterlimit="10" stroke-width="2" d="M77.107 21.606H22.896a3.018 3.018 0 0 0-3.017 3.017v34.904h60.245V24.623a3.016 3.016 0 0 0-3.017-3.017ZM74.45 55.237h-48.9V25.896h48.9v29.341Zm13.385 22.297-7.711-18.007H19.879l-7.711 18.007a1.975 1.975 0 0 0 1.815 2.753h27.126l.71-5.335h16.365l.709 5.335H86.02a1.975 1.975 0 0 0 1.815-2.753Zm-65.397-6.369 2.198-6.223h50.733l2.195 6.223H22.438Z"/><path fill="#EDF3FB" d="M77.564 71.165H22.44l2.197-6.222H75.37l2.195 6.222Z"/><path fill="#1B1B1B" d="M78.985 72.171h-57.97l2.91-8.234H76.08l2.904 8.234ZM23.859 70.16h52.282l-1.486-4.212h-49.31l-1.488 4.212h.002Z"/><path fill="#EDF3FB" d="M58.893 80.038H41.109l.71-5.086h16.365l.709 5.086Z"/><path fill="#1B1B1B" d="M60.047 81.044H39.953l.988-7.098h18.116l.99 7.098Zm-17.783-2.011h15.473l-.43-3.076H42.69l-.43 3.076h.003Z"/><path fill="#C8D3DD" stroke="#1B1B1B" stroke-width="2" d="M8 43.577A2.577 2.577 0 0 1 10.577 41h23.846A2.577 2.577 0 0 1 37 43.577v46.5a2.577 2.577 0 0 1-2.577 2.577H10.577A2.577 2.577 0 0 1 8 90.077v-46.5Z"/><path fill="#EDF3FB" stroke="#1B1B1B" stroke-width="1.192" d="M11.173 47.154c0-.988.801-1.789 1.789-1.789h19.077c.987 0 1.788.801 1.788 1.789v38.154a2.98 2.98 0 0 1-2.98 2.98H14.153a2.98 2.98 0 0 1-2.98-2.98V47.154Z"/><rect width="8.346" height="2.385" x="18.327" y="45.365" fill="#C8D3DD" stroke="#1B1B1B" stroke-width="1.192" rx="1.192"/><defs><filter id="a" width="100" height="100" x="0" y="0" color-interpolation-filters="sRGB" filterUnits="userSpaceOnUse"><feFlood flood-opacity="0" result="BackgroundImageFix"/><feColorMatrix in="SourceAlpha" result="hardAlpha" values="0 0 0 0 0 0 0 0 0 0 0 0 0 0 0 0 0 0 127 0"/><feOffset/><feGaussianBlur stdDeviation="3"/><feComposite in2="hardAlpha" operator="out"/><feColorMatrix values="0 0 0 0 0 0 0 0 0 0 0 0 0 0 0 0 0 0 0.24 0"/><feBlend in2="BackgroundImageFix" result="effect1_dropShadow_418_16092"/><feBlend in="SourceGraphic" in2="effect1_dropShadow_418_16092" result="shape"/></filter></defs></svg>
